X: 12740
T: Father Kelly's Farewell 
R: jig
M: 6/8
K: Gmajor
|:DGA|BAB cBA|BGE DGB|dcB cBA|BGE DGA|
BAB cBA|BGE DGB|dcB cAF|1 G2E:|2 GBd gdB||
|:GDB, G,B,D|GBd ~c3|Aag f/g/af|def gdB|
GDB, G,B,D|GBd c2A|B/c/dB cAF|1 GBd gdB:|2 G3||

